X:17
T:Casadh An tS\'ug\'ain
R:air
H:Also played with doubled parts
H:See also "An Suisin B\'an", setdance#18
Z:id:hn-air-17
M:4/4
L:1/8
K:G
GA | B2GE D2DE | G2AB c2Ac | BAGD E2E2 | E6 DE |
G2G2 A2GA | B2GE D2DE | G2GF G4- | G6 ||
Bd | e2e2 d3g | e2eg edcB | c2Ac BAGD | E6 DE |
G2G2 A2GA | B2GE D2DE | G2GF G4- | G6 || 
<end>
<start>
